svgs/sharp-light/circle-stop.svg

<svg xmlns="http://www.w3.org/2000/svg" viewBox="0 0 512 512"><!--! Font Awesome Pro 6.6.0 by @fontawesome - https://fontawesome.com License - https://fontawesome.com/license (Commercial License) Copyright 2024 Fonticons, Inc. --><path d="M480 256A224 224 0 1 0 32 256a224 224 0 1 0 448 0zM0 256a256 256 0 1 1 512 0A256 256 0 1 1 0 256zm160-96l32 0 128 0 32 0 0 32 0 128 0 32-32 0-128 0-32 0 0-32 0-128 0-32zm32 32l0 128 128 0 0-128-128 0z"/></svg>

<svg xmlns="http://www.w3.org/2000/svg" viewBox="0 0 512 512"><!--! Font Awesome Pro 6.4.2 by @fontawesome - https://fontawesome.com License - https://fontawesome.com/license (Commercial License) Copyright 2023 Fonticons, Inc. --><path d="M480 256A224 224 0 1 0 32 256a224 224 0 1 0 448 0zM0 256a256 256 0 1 1 512 0A256 256 0 1 1 0 256zm160-96h32H320h32v32V320v32H320 192 160V320 192 160zm32 32V320H320V192H192z"/></svg>
